X:1
T:Irish Wedding Song
M:4/4
L:1/8
K:D
F>G|:A4 F>G|A4 Bc|d4 cB|A4 z d|!
d4 c>B|A4 z d|d2c3d|e4 z f|f2 f3 f|!
e2 d3 d|d2 c3 B|A4 z d|d2 c3 B|A2 d3 g|!
f2 c3 e|d6-|d4 z A|A2 e3 e|e2 c3 d|!
d2 G3 B|A4 z A|A2 e3 e|e2 d3 d|d2 c3 d|!
e6|f2 f3 f|e2 d3 d|d2 c2 B2|A4 z d|!
d2 c3 B|A2 d3 g|f2 c3 e|d4 z d|d2 c3 B|!
A2 d3 g|f2 c3 e|1d4 F>G:|2d6|| 
% ABC2Win Version 2.1 1/17/98
